assets/img/menu-icon.svg

<svg xmlns="http://www.w3.org/2000/svg" viewBox="0 0 20 20"><path d="M10 0a10 10 0 1 0 10 10 10 10 0 0 0-10-10zm4.9 3.69l-1.43 1.42a6 6 0 0 0-7 .07l-1.47-1.42a8 8 0 0 1 9.89-.07zm-4.9 10.31a4 4 0 1 1 4-4 4 4 0 0 1-4 4zm-8-4a8 8 0 0 1 1.61-4.8l1.39 1.43a6 6 0 0 0 .07 6.85l-1.38 1.42a8 8 0 0 1-1.69-4.9zm3.1 6.31l1.42-1.42a6 6 0 0 0 6.85.07l1.42 1.42a7.94 7.94 0 0 1-9.7-.07zm11.14-1.31l-1.42-1.42a6 6 0 0 0 .07-7l1.42-1.48a8 8 0 0 1-.07 9.9z" fill="#82878c"/></svg>

<svg xmlns="http://www.w3.org/2000/svg" viewBox="0 0 20 20"><path d="M10,0A10,10,0,1,0,20,10,10,10,0,0,0,10,0Zm4.9,3.69L13.47,5.11a6,6,0,0,0-7,.07L5,3.76a8,8,0,0,1,9.89-.07ZM10,14a4,4,0,1,1,4-4A4,4,0,0,1,10,14ZM2,10A8,8,0,0,1,3.61,5.2L5,6.63a6,6,0,0,0,.07,6.85L3.69,14.9A8,8,0,0,1,2,10Zm3.1,6.31,1.42-1.42a6,6,0,0,0,6.85.07l1.42,1.42a7.94,7.94,0,0,1-9.7-.07ZM16.24,15l-1.42-1.42a6,6,0,0,0,.07-7L16.31,5.1A8,8,0,0,1,16.24,15Z" fill="#82878c"/></svg>
